X:340
%%etbk:tnset id:102,pos:2,rep:3x,ant:
%%etbk:tnset id:496,pos:2,rep:3x,ant:
%%etbk:wsite http://www.thesession.org/tunes/display/2217
%%etbk:pldat 2016-06-22T15:12,2016-06-18T16:35,2016-05-04T16:21,2016-05-03T16:09,2016-03-10T18:01,2016-03-09T15:16,2016-03-07T18:07,2015-12-11T18:15,2015-12-10T18:56,2015-12-10T18:08,2015-12-09T15:47,2015-12-08T15:17,2015-12-07T18:36,2015-12-06T14:07,2015-12-03T18:13,2015-12-02T15:14,2015-12-01T15:14,2015-11-04T16:33,2015-10-29T18:28,2015-10-27T15:20,2015-10-24T12:58,2015-10-15T19:17,2015-06-23T19:01,2015-03-12T18:22,2015-03-09T18:03,2015-03-03T18:26,2014-11-05T18:32,2014-11-04T15:21,2014-11-02T13:23,2014-08-20T18:39,2014-06-25T15:20,2014-03-06T18:49,2014-03-05T18:22,2014-03-01T16:45,2014-02-25T18:13,2014-02-18T16:40,2013-10-30T16:15,2013-10-28T18:34,2013-10-24T18:43,2013-10-16T16:25,2013-10-15T18:25,2013-10-13T15:50,2013-10-09T16:52
T: Bill Collin's
T: Dan Sullivan's Father's
Z: Piano Box Version by Martin Fleischmann
H: Created 2013-02-19 /  Last Modified 2013-02-19
M: 6/8
L: 1/8
R: jig
K: Dmaj
|: "D"!4!d2!1!A {d}!2!BA!2!B | !1!de!3!f !4!a2!3!f | !4!ab!4!a !3!ffe | "G"!1!d!2!BB !2!BAB |
"D"!4!d2!1!A {d}!2!BA!2!B | !1!de!3!f !4!a2!3!f | "A"!4!ab!4!a !3!f2e | "D"{g}!2!e!1!dd d3:|
|: "D"!3!f!4!aa !3!f!4!a!5!b | !4!afe !3!f2f | !4!ab!4!a !3!ffe | "G"!1!d!2!BB !2!BAB |
"D"!4!d2!1!A {d}!2!BA!2!B | !1!de!3!f !4!a2!3!f | "A"!4!ab!4!a !3!f2e | "D"{g}!2!e!1!dd d3:|


